X: 1
T: Nicholas McAuliffe's
M: 12/8
L: 1/8
R: slide
K: Gmaj
E|D2G GFG ABc A2G|FGA DEF G2A Bcd|
D2G GFG ABc A2G|FGA DEF G3 G2:|
|:A|B2B BGB c3 c2B|ABA ABA G2A Bcd|
D2G GFG ABc A2G|FGA DEF G3 G2:|
